X: 1
T: Joe Scurfield's Favourite
M: 4/4
L: 1/8
R: hornpipe
K: Gmin
D2|G^FGA Bd^cd|=cA^FD Gg^fg|=fecA GcAG|F2 (3GF=E F2EF|
G_EGc AFAc|BFBg f2f^f|gecB AFGA|B2d2 B2:|
|:=B2|c=Bcd ecAF|(3_BcB Ac B2=B2|c=Bcd efaf|gf=eg f2f^f|
g_ecB AFGA|Bdg^f =fdAB|GEGB AFAc|B2A2 B2:|
